X:3295
T:Concertina
M:C
L:1/8
K:G Major
dgg2 dgg2|dggd edBd|edfd edfd|edfd edBd|!
dgg2 dgg2|dggd edBA|Bdef gfge|dBAB G4:|!
d2Bd edBd|d2Bd edBd|edfd edfd|edfd edBd|!
d2Bd edBd|d2Bd edBA|Bdef gfge|dBAB G4:|!


